X: 18536
T: I Have A Bonnet Trimmed With Blue
R: polka
M: 2/4
K: Dmajor
|:DE/F/ GB|AD F2|AB/A/ GE|DF F/G/F/E/|
DE/F/ GB|AD F2|AB/A/ GE|ED D2:|
|:AB/c/ dc/B/|AD F2|AB/A/ GE|DF F2|
AB/c/ dc/B/|AD F2|AB/A/ GE|ED D2:|

